X: 33509
T: Rainbow Flag, The
R: jig
M: 6/8
K: Dmixolydian
G|:FDF GBG|AdB cAG|FDF GBA|GBd cAG|
FDF GBG|AdB cAG|AdB cAG|1 FDD DAG:|2 Add d2e||
|:fdf gba|fag fed|ece gfe|faa gfe|
fdf geg|bba faf|gec Aeg|1 fdd d2e:|2 fdd d2||

